svgs/sharp-solid/pager.svg

<svg xmlns="http://www.w3.org/2000/svg" viewBox="0 0 512 512"><!--! Font Awesome Pro 6.6.0 by @fontawesome - https://fontawesome.com License - https://fontawesome.com/license (Commercial License) Copyright 2024 Fonticons, Inc. --><path d="M0 64l512 0 0 384L0 448 0 64zm64 64l0 128 384 0 0-128L64 128zM80 320l-24 0 0 48 24 0 56 0 24 0 0-48-24 0-56 0zm136 0l-24 0 0 48 24 0 48 0 24 0 0-48-24 0-48 0z"/></svg>

<svg xmlns="http://www.w3.org/2000/svg" viewBox="0 0 512 512"><!--! Font Awesome Pro 6.4.2 by @fontawesome - https://fontawesome.com License - https://fontawesome.com/license (Commercial License) Copyright 2023 Fonticons, Inc. --><path d="M0 64H512V448H0V64zm64 64V256H448V128H64zM80 320H56v48H80h56 24V320H136 80zm136 0H192v48h24 48 24V320H264 216z"/></svg>
